X: 21423
T: Keswick Bonny Lasses
R: hornpipe
M: 4/4
K: Dmajor
A2|:d2 f>d d>c B>A|B>c d>c B>A G>F|G2 B>A G>F E>D|C2 A,2 A,2 (3ABc|
d2 f>d d>c B>A|B>c d>c B>A G>F|G>A B>c d>A B>G|1 F2 D2 D2 (3ABc:|2 F2 D2 D2 A>G||
|:F>D F>A d>A G>F|G>E G>B e>c A>G|F>D F>A d>A G>F|G2 E2 E2 (3ABc|
d2 f>d d>c B>A|B>c d>c B>A G>F|G>A B>c d>A B>G|1 F2 D2 D2 A>G:|2 F2 D2 D2||

